X:1
T:Prevent us, O Lord
T:Prevent us, O Lord
C:Parry
%%score [ 1 2 3 4 ]
L:1/8
M:4/4
K:F
V:1 treble nm="S" snm="S."
V:2 treble nm="A" snm="A."
V:3 treble-8 transpose=-12 nm="T" snm="T."
V:4 bass nm="B" snm="B."
V:1
"^Editor: John Henry Fowler""^(  Revision:   8 - 12 - 2008  )"!mf! f2 | %1
w: Pre-|
 c6"^From \"Book of Common Prayer\" - (1549)" BG | F4 z2"^Charles Hubert Hastings Parry" F2 | %3
w: vent us, O|Lord, in|
 d2"^( 1848 - 1918 )" c2 B4 | A2 A2 =B2 c2 | f6 e2 | d4 c2 z2 | z4 z2 B2 | c3 B A2 c2 | %9
w: all our do-|ings with thy most|gra- cious|fa- vour,|and|fur- ther us with|
 f2 e2 ef d2 | e6 e2 | e2 A2 A2 d2 | d2 G2 G2 e2 | d2 c2 cd =B2 | c2 z2 z4 | z2 BB c3 B | %16
w: thy con- ti- nu- al|help, and|fur- ther us, and|fur- ther us with|thy con- ti- nu- al|help;|that in all our|
 A2 A2 d2 c2 | f2 (ed) c2 (dc) | B2 dd c2 cc | c2 cc d2 e2 | f2 A2 d2 (cB) | A6 A2 | c>c c2 B2 B2 | %23
w: works, in all our|works be- * gun, con- *|ti- nued, and end- ed in|thee, we may glo- ri-|\-~fy thy ho- ly _|name, and|fi- nal- ly by thy|
 (B2 AG) A2 A2 | f>f e4 dc | (c2 =B2) c2 c2 | (f8- | f2 d2) c2 B2 | (A4 d4 | G4) G4 | F2 F2 F2 F2 | %31
w: mer- * * cy, and|fi- nal- ly by thy|mer- * cy ob-|tain|_ _ ev- er-|last- *|* ing|life; through Je- sus|
 F4 F4 | F8 | G8 | A8 |] %35
w: Christ our|Lord.|A-|men.|
V:2
!mf! z2 |!mf! z2 F2 F2 EE | F4 z2 F2 | F2 F2 (F2 E2) | F2 F2 G2 G2 | (F4 G2) G2 | (F2 GF) E2 z2 | %7
w: |Pre- vent us, O|Lord, in|all our do- *|ings with thy most|gra- \- cious|fa- * * vour,|
 z8 | z2 G2 A3 G | F2 G2 A3 A | A2 ^G^F G2 G2 | =G2 (=FE) (DE) F2 | F2 (ED) C2 E2 | F2 (EF) GG F2 | %14
w: |and fur- ther|us with thy con-|ti- nu- al help, and|fur- ther _ us, * and|fur- ther _ us with|thy con- * ti- nu- al|
 E2 z2 z2 FF | G3 F E2 E2 | F2 F2 F2 (AG) | F3 G A2 D2- | D2 G2 G2 FE | F2 FF F2 G2 | %20
w: help; that in|all our works, in|all our works be- *|gun, con- ti- nued,|_ and end- ed in|thee, we may glo- ri-|
 F2 (FE) D2 E2 | F6 F2 | F>F F2 F2 (EF) | (G2 E2) F2 F2 | F>F G2 A2 A2 | (G3 F) E2 E2 | (F4 G2 A2 | %27
w: \-~fy thy _ ho- ly|name, and|fi- nal- ly by thy *|mer- * cy, and|fi- nal- ly by thy|mer- * cy ob-|tain _ _|
 B2) F4 F2 | F8- | F4 E4 | F2 F2 F2 F2 | B,4 D4 | C4 (F4- | F4 E4) | F8 |] %35
w: _ ev- er-|last-|* ing|life; through Je- sus|Christ our|Lord. A-||men.|
V:3
 z2 |!mf! z2 A2 G2 cB | A2 A2 (d4- | de) f2 (d2 c2) | c2 c2 d2 c2 | (A2 =Bc d2) G2 | %6
w: |Pre- vent us, O|Lord, in all|_ _ our do- *|ings with thy most|gra- * * \- cious|
 (A2 =B2) c2 c2 | d3 c _B2 d2 | c6 c2 | d2 (c=B) A3 B | c2 =BA B2 B2 | A2 (AG) (FG) A2 | %12
w: fa- * vour, and|fur- ther us, and|fur- ther|us with _ thy con-|ti- nu- al help, and|fur- ther _ us, * and|
 G2 (GF) E2 (cB) | (A=B)(cd) ee d2 | c2 cc d3 c | B2 G2 (cB)(AG) | (FG) A2 B2 (fe) | %17
w: fur- ther _ us with _|thy _ con- * ti- nu- al|help; that in all our|works, in all _ our *|works * be- gun, con- *|
 (d2 cB) A2 A2 | (G2 B4) AG | A2 cc B2 B2 | A2 A2 (BA)(Gc) | c6 c2 | c>c c2 d2 G2 | c4 (FG)(Ac) | %24
w: ti- * * nued, and|end- \- ed in|thee, we may glo- ri-|\-~fy thy ho- * ly _|name, and|fi- nal- ly by thy|mer- cy _ and _|
 =B>B c4 fe | d4 c2 c2 | (c2 _e2 d2 c2 | B4) c2 F2 | (A4 _A4 | G2 =A2) B4 | A2 F2 F2 F2 | F6 G2 | %32
w: fi- nal- ly by thy|mer- cy ob-|tain _ _ _|_ ev- er-|last- *|* * ing|life; through Je- sus|Christ our|
 A8 | (d4 c4) | c8 |] %35
w: Lord.|A- *|men.|
V:4
 z2 |!mf! z2 F,2 C,2 C,C, | D,4 z2 D,2 | B,2 A,2 (G,2 C,2) | F,2 F,2 F,2 E,2 | (D,3 C, =B,,2) C,2 | %6
w: |Pre- vent us, O|Lord, in|all our do- *|ings with thy most|gra- * \- cious|
 G,,4 C,2 z2 | z2 F,2 G,3 F, | E,2 E,2 (F,3 E, | D,2) E,2 F,2 F,F, | E,6 (E,D,) | %11
w: fa- vour,|and fur- ther|us with thy _|_ con- ti- nu- al|help, and _|
 ^C,2 A,,2 D,3 =C, | =B,,2 G,,2 C,2 C,2 | F,G, A,2 G,G, G,2 | C,2 z2 z4 | z4 z2 C,C, | %16
w: fur- ther us, and|fur- ther us with|thy _ con- ti- nu- al|help;|that in|
 D,3 C, B,,2 A,,2 | D,3 E, F,2 ^F,F, | (G,3 =F,) E,2 C,2 | F,2 A,A, B,2 G,2 | D,2 (D,C,) B,,2 C,2 | %21
w: all our works, be-|gun, con- ti- nued, and|end- * ed in|thee, we may glo- ri-|\-~fy thy _ ho- ly|
 F,6 F,2 | A,>A, A,4 G,F, | (E,2 C,2) F,2 F,2 | D,>D, E,2 F,2 F,2 | G,4 C,2 B,2 | %26
w: name, and|fi- nal- ly by thy|mer- * cy, and|fi- nal- ly by thy|mer- cy ob-|
 (A,2 A,,2 B,,2 C,2 | D,4) A,,2 D,2 | C,8- | C,4 C,4 | D,2 F,2 F,2 F,2 | D,4 B,,4 | A,,4 (D,4 | %33
w: tain _ _ _|_ ev- er-|last-|* ing|life; through Je- sus|Christ our|Lord. A-|
 B,,4 C,4) | [F,,F,]8 |] %35
w: |men.|

